X:1
T:Title
%%score { ( 1 3 4 ) | 2 }
L:1/8
M:6/8
K:Eb
V:1 treble nm="Grand Piano"
V:3 treble 
V:4 treble 
V:2 bass 
V:1
 z3 z2[Q:1/4=87] [EG] | [GB]>[GB][GB] [GB][B,EG][B,FA] | [EGB]>[EGB][DAB] [EGB]2 [Ge] | %3
 [Ad]>[Ad][Ad] [Ad][FA][GB] | [DAc]>[DAc][DAc] [DAc]2 [B,DF] | %5
 [B,EB]>[B,EB][DAB] [EGB][B,EG][B,FA] | [EGB]>[EGB][DAB] [EGB]2 [Gc] | .d6 | %8
[M:5/8] [DB]-[DB]- [DB]3 |[M:1/8] B |[M:3/4] e4 z2 | B6 | B4 z2 | G6 | cc c e2 c | %15
[M:7/8] [GB][GB][FB] [Ee]3 [_DE] |[M:3/4] [CF]2 [Ec][EB]- [EB]/[EG]/[DF] | %17
[M:5/8] [B,E]-[B,E]- [B,E]3 |] %18
V:2
 z3 z2 [E,B,] | [E,E]>[E,E][E,E] [E,E]E,E, | E,>E,B,, E,2 [E,B,] | [F,B,]>[F,B,][F,B,] B,B,B, | %4
 B,,>B,,B,, B,,2 A, | G,>G,F, E,E,E, | E,>E,B,, E,2 [E,B,] | %7
 [F,B,F]2 [F,B,] [F,B,][F,B,D][F,=A,E] |[M:5/8] [B,,B,]-[B,,B,]- [B,,B,]3 |[M:1/8] [B,A] | %10
[M:3/4] [E,B,]>[E,B,] [E,B,] [E,B,]2 [E,C] | [E,E]>[E,E] [E,E] [E,E]2 [E,B,E] | %12
 [B,,B,]>[B,,F,] [B,,F,] [B,,B,]2 [B,,B,] | [E,B,E]>[E,B,] [E,B,] [E,B,]2 [E,E] | %14
 [A,EA][A,EA] [A,EA] [A,CA]2 [A,EA] |[M:7/8][K:bass] [E,E][E,E][D,B,] [C,C]3 [B,,G,] | %16
[M:3/4] [A,,A,]2 [=A,,_G,][B,,=G,]- [B,,G,]/[B,,B,]/[B,,A,] |[M:5/8] [E,G,]-[E,G,]- [E,G,]3 |] %18
V:3
 x6 | x6 | x6 | x6 | x6 | x6 | x6 | z2 F FFc |[M:5/8] x5 |[M:1/8] x |[M:3/4] G>G .G2 d[Ac] | %11
 G>G G G2 G | D>D .D2 F[FA] | z z/ E/ E E2 [GB] | x6 |[M:7/8] x7 |[M:3/4] x6 |[M:5/8] x5 |] %18
V:4
 x6 | x6 | x6 | x6 | x6 | x6 | x6 | x6 |[M:5/8] x5 |[M:1/8] x |[M:3/4] z2 z .G3 | x6 | z2 z .D3 | %13
 x6 | x6 |[M:7/8] x7 |[M:3/4] x6 |[M:5/8] x5 |] %18

